X: 38653
T: Stornton Wake
R: reel
M: 4/4
K: Edorian
|:B3 c d2 B2|AGFE F2 D2|E2 B2 BAGF|E4 E4:|
B3 c d2 B2|ed cB c2 A2|B3 c d2 B2|e4 B4|
B3 c d2 B2|AGFE F2 D2|E2 B2 BAGF|E4 E4||

